resources/svg/major-logo-block.svg

<svg xmlns="http://www.w3.org/2000/svg" viewBox="0 0 20 20" fill="currentColor"><path d="M1 2a1 1 0 0 1 1-1h2v2h-1v1h-2v-2zm18 0a1 1 0 0 0-1-1h-2v2h1v1h2v-2zm-17 17a1 1 0 0 1-1-1v-2h2v1h1v2h-2zm16 0a1 1 0 0 0 1-1v-2h-2v1h-1v2h2zm-12-2h3v2h-3v-2zm5 0h3v2h-3v-2zm3-16v2h-3v-2h3zm-5 0v2h-3v-2h3zm.598 5.332a4 4 0 0 0-3.573 7.147l3.573-7.147zm-1.598 7.668h8l-4-8-4 8z"/></svg>

<svg xmlns="http://www.w3.org/2000/svg" viewBox="0 0 20 20" fill="currentColor"><path d="M1 2a1 1 0 011-1h2v2H3v1H1V2zM19 2a1 1 0 00-1-1h-2v2h1v1h2V2zM2 19a1 1 0 01-1-1v-2h2v1h1v2H2zM18 19a1 1 0 001-1v-2h-2v1h-1v2h2zM6 17h3v2H6v-2zM11 17h3v2h-3v-2zM14 1v2h-3V1h3zM9 1v2H6V1h3zM9.598 6.332a4 4 0 00-3.573 7.147l3.573-7.147zM8 14h8l-4-8-4 8z" fill="#5C5F62"/></svg>
